storefront-outline.svg

<svg fill="currentColor" viewBox="0 0 24 24"><path d="M5.06 3c-.43 0-.84.14-1.22.42s-.6.64-.7 1.08L2.11 8.91c-.25 1.09-.05 2.04.61 2.86l.28.28V19c0 .5.2 1 .61 1.39S4.5 21 5 21h14c.5 0 1-.2 1.39-.61S21 19.5 21 19v-6.95l.28-.28c.66-.82.86-1.77.61-2.86L20.86 4.5c-.13-.44-.36-.8-.73-1.08A1.88 1.88 0 0 0 18.94 3zm13.83 1.97 1.08 4.41c.09.43 0 .82-.28 1.17-.25.31-.56.45-.94.45-.31 0-.58-.1-.8-.34-.22-.23-.34-.5-.37-.82L16.97 5zM5.06 5h1.97l-.61 4.84C6.3 10.63 5.91 11 5.25 11c-.41 0-.72-.14-.94-.45-.28-.35-.37-.74-.28-1.17zm3.99 0H11v4.7c0 .35-.11.65-.36.92-.25.26-.56.38-.94.38-.34 0-.63-.12-.86-.41S8.5 10 8.5 9.66V9.5zM13 5h1.95l.55 4.5c.08.42 0 .77-.29 1.07-.26.3-.6.43-1.01.43-.31 0-.59-.12-.84-.38A1.3 1.3 0 0 1 13 9.7zm-5.55 7.05c.63.62 1.41.95 2.35.95.84 0 1.58-.33 2.2-.95.69.62 1.45.95 2.3.95.87 0 1.62-.33 2.25-.95.56.62 1.31.95 2.25.95h.23v6H5v-6h.25c.91 0 1.64-.33 2.2-.95"/></svg>

<svg  viewBox="0 0 24 24" fill="currentColor"><path  d="M5.06 3C4.63 3 4.22 3.14 3.84 3.42S3.24 4.06 3.14 4.5L2.11 8.91C1.86 10 2.06 10.95 2.72 11.77L3 12.05V19C3 19.5 3.2 20 3.61 20.39S4.5 21 5 21H19C19.5 21 20 20.8 20.39 20.39S21 19.5 21 19V12.05L21.28 11.77C21.94 10.95 22.14 10 21.89 8.91L20.86 4.5C20.73 4.06 20.5 3.7 20.13 3.42C19.77 3.14 19.38 3 18.94 3H5.06M18.89 4.97L19.97 9.38C20.06 9.81 19.97 10.2 19.69 10.55C19.44 10.86 19.13 11 18.75 11C18.44 11 18.17 10.9 17.95 10.66C17.73 10.43 17.61 10.16 17.58 9.84L16.97 5L18.89 4.97M5.06 5H7.03L6.42 9.84C6.3 10.63 5.91 11 5.25 11C4.84 11 4.53 10.86 4.31 10.55C4.03 10.2 3.94 9.81 4.03 9.38L5.06 5M9.05 5H11V9.7C11 10.05 10.89 10.35 10.64 10.62C10.39 10.88 10.08 11 9.7 11C9.36 11 9.07 10.88 8.84 10.59S8.5 10 8.5 9.66V9.5L9.05 5M13 5H14.95L15.5 9.5C15.58 9.92 15.5 10.27 15.21 10.57C14.95 10.87 14.61 11 14.2 11C13.89 11 13.61 10.88 13.36 10.62C13.11 10.35 13 10.05 13 9.7V5M7.45 12.05C8.08 12.67 8.86 13 9.8 13C10.64 13 11.38 12.67 12 12.05C12.69 12.67 13.45 13 14.3 13C15.17 13 15.92 12.67 16.55 12.05C17.11 12.67 17.86 13 18.8 13H19.03V19H5V13H5.25C6.16 13 6.89 12.67 7.45 12.05Z"/></svg>
